X:288
T:Scotland the Brave
M:4/4
L:1/8
K:DMaj
e|{g}A2{g}A3/2B/2 {g}cA {g}ce|a2{g}a2{GdG}ae cA|
{g}d2f3/2d/2 {g}ce cA|{GdG}B2{g}e2{g}e3/2f/2 e3/4d/4c3/4B/4|
{g}A2{g}A3/2B/2 {g}cA {g}ce|a2{g}a2{GdG}ae cA|
{g}d2f3/2d/2 {g}ce cA|{GdG}B2{g}A3/2B/2 {g}A2{g}ce||
a2{g}a2{g}ae {gcd}cA|a2{g}a2{g}ae {gcd}ce|
a2{g}a3/2g/2f2{GdG}a3/2g/2|fa gf {g}ed {g}cB||
% Written by ABC2Win  2.2.124 BETA on 8/16/2006
% Written by ABC2Win  2.2.124 BETA on 8/27/2006
% Written by ABC2Win  2.2.124 BETA on 9/11/2006
% Written by ABC2Win  2.2.124 BETA on 9/17/2006
